assets/sonr-icons/social-github.svg

<svg xmlns="http://www.w3.org/2000/svg" width="24" height="24" fill="none" viewBox="0 0 24 24"><path fill="#000" d="M12 2.24702C6.477 2.24702 2 6.72402 2 12.248C2 16.639 4.831 20.37 8.767 21.714L8.837 21.735C9.337 21.823 9.525 21.523 9.525 21.26C9.525 21.022 9.512 20.235 9.512 19.398C6.999 19.861 6.349 18.785 6.15 18.223C5.918 17.66 5.569 17.186 5.13 16.814L5.125 16.809C4.775 16.621 4.275 16.159 5.112 16.147C5.777 16.221 6.337 16.611 6.644 17.162L6.649 17.173C7.022 17.833 7.718 18.271 8.516 18.271C8.9 18.271 9.26 18.17 9.571 17.993L9.56 17.998C9.606 17.469 9.841 17.003 10.197 16.661L10.198 16.66C7.973 16.41 5.648 15.548 5.648 11.723C5.648 11.706 5.647 11.687 5.647 11.668C5.647 10.652 6.037 9.72602 6.675 9.03202L6.673 9.03502C6.543 8.67802 6.467 8.26502 6.467 7.83602C6.467 7.31102 6.58 6.81202 6.782 6.36202L6.773 6.38402C6.773 6.38402 7.611 6.12202 9.523 7.40902C10.272 7.19502 11.133 7.07202 12.023 7.07202C12.913 7.07202 13.774 7.19502 14.59 7.42502L14.523 7.40902C16.436 6.10902 17.273 6.38402 17.273 6.38402C17.467 6.81102 17.579 7.31002 17.579 7.83502C17.579 8.26502 17.503 8.67702 17.365 9.05902L17.373 9.03402C18.009 9.72102 18.398 10.644 18.398 11.657C18.398 11.679 18.398 11.702 18.397 11.725V11.721C18.397 15.559 16.059 16.409 13.835 16.658C14.257 17.086 14.518 17.673 14.518 18.321C14.518 18.387 14.515 18.452 14.51 18.516L14.511 18.508C14.511 19.845 14.498 20.921 14.498 21.258C14.498 21.52 14.686 21.833 15.186 21.733C19.18 20.359 21.998 16.634 21.998 12.251C21.998 6.72702 17.521 2.24902 11.998 2.24602V2.24402L12 2.24702Z"/></svg>

<svg xmlns="http://www.w3.org/2000/svg" width="24" height="24" fill="none"><path fill="currentColor" d="M12 2.247c-5.523 0-10 4.477-10 10.001 0 4.391 2.831 8.122 6.767 9.466l.07.021c.5.088.688-.212.688-.475 0-.238-.013-1.025-.013-1.862-2.513.463-3.163-.613-3.362-1.175a3.66 3.66 0 0 0-1.02-1.409l-.005-.005c-.35-.188-.85-.65-.013-.662a2 2 0 0 1 1.532 1.015l.005.011a2.14 2.14 0 0 0 2.922.82l-.011.005c.046-.529.281-.995.637-1.337l.001-.001c-2.225-.25-4.55-1.112-4.55-4.937l-.001-.055c0-1.016.39-1.942 1.028-2.636l-.002.003a3.591 3.591 0 0 1 .109-2.673l-.009.022s.838-.262 2.75 1.025a9.2 9.2 0 0 1 2.5-.337c.89 0 1.751.123 2.567.353l-.067-.016c1.913-1.3 2.75-1.025 2.75-1.025a3.595 3.595 0 0 1 .092 2.675l.008-.025a3.85 3.85 0 0 1 1.025 2.623l-.001.068v-.004c0 3.838-2.338 4.688-4.562 4.937a2.36 2.36 0 0 1 .675 1.858l.001-.008c0 1.337-.013 2.413-.013 2.75 0 .262.188.575.688.475 3.994-1.374 6.812-5.099 6.812-9.482 0-5.524-4.477-10.002-10-10.005v-.002z"/></svg>
